X: 11843
T: Elterwater, The
R: hornpipe
M: 4/4
K: Gmajor
|:(3ABc|d>BG>B d2 G>B|e>cA>c e2 (3gfe|d>BG>B d>BG>E|F>AD>F A>Bc>e|
d>BG>B d>GB>d|e>cA>c e>fg>e|d>BG>B c>AF>A|G2 (3B^GA G2:|
|:(3fga|b>gd>g a>f d2|g>e (3cde d>B G2|c2 (3def g>dc>B|(3BcB A>^G A2 =g>a|
b>gd>g a>fd>f|g>ec>e d>BG>B|c>ed>c (3BcB (3AGF|(3ABA G2 G2:|

